resources/img/scalable/actions/flypie-multimedia-previous-symbolic.svg

<?xml version="1.0" encoding="UTF-8" standalone="no"?>
<svg
   xmlns:dc="http://purl.org/dc/elements/1.1/"
   xmlns:cc="http://creativecommons.org/ns#"
   xmlns:rdf="http://www.w3.org/1999/02/22-rdf-syntax-ns#"
   xmlns:svg="http://www.w3.org/2000/svg"
   xmlns="http://www.w3.org/2000/svg"
   xmlns:sodipodi="http://sodipodi.sourceforge.net/DTD/sodipodi-0.dtd"
   xmlns:inkscape="http://www.inkscape.org/namespaces/inkscape"
   width="4.2333mm"
   height="4.2333mm"
   version="1.1"
   viewBox="0 0 4.2333 4.2333"
   id="svg17081"
   sodipodi:docname="flypie-multimedia-previous-symbolic.svg"
   inkscape:version="1.0.2 (e86c870879, 2021-01-15)">
  <defs
     id="defs17085" />
  <sodipodi:namedview
     pagecolor="#ffffff"
     bordercolor="#666666"
     borderopacity="1"
     objecttolerance="10"
     gridtolerance="10"
     guidetolerance="10"
     inkscape:pageopacity="0"
     inkscape:pageshadow="2"
     inkscape:window-width="1461"
     inkscape:window-height="1061"
     id="namedview17083"
     showgrid="false"
     inkscape:zoom="45.937859"
     inkscape:cx="7.9999374"
     inkscape:cy="7.9999374"
     inkscape:window-x="0"
     inkscape:window-y="32"
     inkscape:window-maximized="0"
     inkscape:current-layer="svg17081" />
  <metadata
     id="metadata17051">
    <rdf:RDF>
      <cc:Work
         rdf:about="">
        <dc:format>image/svg+xml</dc:format>
        <dc:type
           rdf:resource="http://purl.org/dc/dcmitype/StillImage" />
        <dc:title />
      </cc:Work>
    </rdf:RDF>
  </metadata>
  <path
     d="M 3.90961,0.678793 V 3.4897678 H 3.6606987 C 3.6171615,3.4899687 3.574133,3.4788806 3.5362449,3.4546296 L 1.7939015,2.3302598 C 1.7165672,2.2819425 1.6772259,2.1831225 1.6772259,2.0843145 c 0,-0.098816 0.039339,-0.197638 0.1166756,-0.2459452 L 3.5362449,0.71399948 C 3.574133,0.68974242 3.6171615,0.6784937 3.6606987,0.6788633 h 0.023335 z"
     color="#000000"
     fill="#2e3436"
     style="text-indent:0;text-decoration:none;text-decoration-line:none;text-transform:none;stroke-width:0.264591"
     id="path17063" />
  <path
     d="M 2.26961,0.678793 V 3.4897678 H 2.0206987 C 1.9771615,3.4899687 1.934133,3.4788806 1.8962449,3.4546296 L 0.15390149,2.3302598 C 0.07656717,2.2819425 0.03722588,2.1831225 0.03722588,2.0843145 c 0,-0.098816 0.03933951,-0.197638 0.11667561,-0.2459452 L 1.8962449,0.71399948 C 1.934133,0.68974242 1.9771615,0.6784937 2.0206987,0.6788633 h 0.023335 z"
     color="#000000"
     fill="#2e3436"
     style="text-indent:0;text-decoration:none;text-decoration-line:none;text-transform:none;stroke-width:0.264591"
     id="path17073" />
</svg>

<svg xmlns="http://www.w3.org/2000/svg" width="16" height="16" viewBox="0 0 4.233 4.233"><path d="M3.91.679v2.81h-.25a.227.227 0 0 1-.124-.034L1.794 2.33c-.077-.048-.117-.147-.117-.246s.04-.197.117-.246L3.536.714a.226.226 0 0 1 .125-.035h.023z" color="#000" fill="#2e3436" style="text-indent:0;text-decoration:none;text-decoration-line:none;text-transform:none;stroke-width:.264591"/><path d="M2.27.679v2.81h-.25a.227.227 0 0 1-.124-.034L.154 2.33c-.077-.048-.117-.147-.117-.246s.04-.197.117-.246L1.896.714a.226.226 0 0 1 .125-.035h.023z" color="#000" fill="#2e3436" style="text-indent:0;text-decoration:none;text-decoration-line:none;text-transform:none;stroke-width:.264591"/></svg>
